contributed-vectors/ikea_home_smart.svg

<svg xmlns="http://www.w3.org/2000/svg" xml:space="preserve" style="fill-rule:evenodd;clip-rule:evenodd;stroke-linejoin:round;stroke-miterlimit:2" viewBox="0 0 192 192"><path d="M164.5 21.5c0-5.519-4.481-10-10-10h-133c-5.519 0-10 4.481-10 10v133c0 5.519 4.481 10 10 10h133c5.519 0 10-4.481 10-10v-133Z" style="fill:#f9de81" transform="translate(8 8)"/><path d="m96 39.771 49.23 40.117v43.283a6.837 6.837 0 0 1-6.836 6.836H53.606a6.834 6.834 0 0 1-6.836-6.836V79.888L96 39.771ZM59.621 85.993v31.164h72.758V85.993L96 56.348 59.621 85.993Z" style="fill:#9abeff" transform="matrix(.72347 0 0 .72347 26.547 34.586)"/></svg>

<?xml version="1.0" encoding="UTF-8" standalone="no"?>
<!DOCTYPE svg PUBLIC "-//W3C//DTD SVG 1.1//EN" "http://www.w3.org/Graphics/SVG/1.1/DTD/svg11.dtd">
<svg width="100%" height="100%" viewBox="0 0 192 192" version="1.1" xmlns="http://www.w3.org/2000/svg" xmlns:xlink="http://www.w3.org/1999/xlink" xml:space="preserve" xmlns:serif="http://www.serif.com/" style="fill-rule:evenodd;clip-rule:evenodd;stroke-linejoin:round;stroke-miterlimit:2;">
    <g id="Layer1">
        <g transform="matrix(1,0,0,1,8,8)">
            <path d="M164.5,21.5C164.5,15.981 160.019,11.5 154.5,11.5L21.5,11.5C15.981,11.5 11.5,15.981 11.5,21.5L11.5,154.5C11.5,160.019 15.981,164.5 21.5,164.5L154.5,164.5C160.019,164.5 164.5,160.019 164.5,154.5L164.5,21.5Z" style="fill:rgb(249,222,129);"/>
        </g>
        <g transform="matrix(0.723466,0,0,0.723466,26.5472,34.5855)">
            <path d="M96,39.771L145.23,79.888L145.23,123.171C145.23,124.984 144.509,126.723 143.227,128.005C141.945,129.287 140.207,130.007 138.394,130.007L53.606,130.007C51.793,130.007 50.055,129.287 48.773,128.005C47.491,126.723 46.77,124.984 46.77,123.171L46.77,79.888L96,39.771ZM59.621,85.993L59.621,117.157L132.379,117.157L132.379,85.993L96,56.348L59.621,85.993Z" style="fill:rgb(154,190,255);"/>
        </g>
    </g>
</svg>
